icon/ii/zoom-in.svg

<svg xmlns="http://www.w3.org/2000/svg" viewBox="0 0 8 8" height="1em" width="1em">
  <path d="M3.5 0c-1.93 0-3.5 1.57-3.5 3.5s1.57 3.5 3.5 3.5c.61 0 1.19-.16 1.69-.44a1 1 0 0 0 .09.13l1 1.03a1.02 1.02 0 1 0 1.44-1.44l-1.03-1a1 1 0 0 0-.13-.09c.27-.5.44-1.08.44-1.69 0-1.93-1.57-3.5-3.5-3.5zm0 1c1.39 0 2.5 1.11 2.5 2.5 0 .59-.2 1.14-.53 1.56-.01.01-.02.02-.03.03a1 1 0 0 0-.06.03 1 1 0 0 0-.25.28c-.44.37-1.01.59-1.63.59-1.39 0-2.5-1.11-2.5-2.5s1.11-2.5 2.5-2.5zm-.5 1v1h-1v1h1v1h1v-1h1v-1h-1v-1h-1z"/>
</svg>

<svg xmlns="http://www.w3.org/2000/svg" width="8" height="8"><path d="M3.5 0C1.57 0 0 1.57 0 3.5S1.57 7 3.5 7c.61 0 1.19-.16 1.69-.44a1 1 0 0 0 .09.13l1 1.03a1.02 1.02 0 1 0 1.44-1.44l-1.03-1a1 1 0 0 0-.13-.09c.27-.5.44-1.08.44-1.69C7 1.57 5.43 0 3.5 0zm0 1C4.89 1 6 2.11 6 3.5c0 .59-.2 1.14-.53 1.56l-.03.03a1 1 0 0 0-.06.03 1 1 0 0 0-.25.28c-.44.37-1.01.59-1.63.59-1.39 0-2.5-1.11-2.5-2.5S2.11.99 3.5.99zM3 2v1H2v1h1v1h1V4h1V3H4V2H3z"/></svg>
